;FLAVOR:Marlin
;TIME:1472
;Filament used: 0.383114m
;Layer height: 0.12
;MINX:103.744
;MINY:103.745
;MINZ:0.12
;MAXX:131.258
;MAXY:131.253
;MAXZ:12
;Generated with Cura_SteamEngine 4.13.1
M140 S50
M105
M190 S50
M104 S200
M105
M109 S200
M82 ;absolute extrusion mode
; Ender 3 Custom Start G-code
G92 E0 ; Reset Extruder
G28 ; Home all axes
G1 Z2.0 F3000 ; Move Z Axis up little to prevent scratching of Heat Bed
G1 X0.1 Y20 Z0.3 F5000.0 ; Move to start position
G1 X0.1 Y200.0 Z0.3 F1500.0 E15 ; Draw the first line
G1 X0.4 Y200.0 Z0.3 F5000.0 ; Move to side a little
G1 X0.4 Y20 Z0.3 F1500.0 E30 ; Draw the second line
G92 E0 ; Reset Extruder
G1 Z2.0 F3000 ; Move Z Axis up little to prevent scratching of Heat Bed
G1 X5 Y20 Z0.3 F5000.0 ; Move over to prevent blob squish
G92 E0
G92 E0
G1 F2700 E-5
;LAYER_COUNT:100
;LAYER:0
M107
G0 F6000 X107.774 Y107.769 Z0.12
;TYPE:SKIRT
G1 F2700 E0
G1 F1200 X107.974 Y107.574 E0.00557
G1 X108.521 Y107.075 E0.02035
G1 X108.676 Y106.943 E0.02441
G1 X109.474 Y106.325 E0.04455
G1 X109.66 Y106.194 E0.0491
G1 X110.188 Y105.844 E0.06174
G1 X110.291 Y105.78 E0.06416
G1 X111.224 Y105.261 E0.08546
G1 X111.477 Y105.136 E0.09109
G1 X112.011 Y104.89 E0.10283
G1 X112.209 Y104.805 E0.10713
G1 X113.027 Y104.492 E0.12461
G1 X113.175 Y104.442 E0.12772
G1 X114.331 Y104.12 E0.15167
G1 X114.808 Y104.015 E0.16142
G1 X115.732 Y103.853 E0.18014
G1 X116.24 Y103.798 E0.19033
G1 X116.381 Y103.786 E0.19316
G1 X116.998 Y103.751 E0.20549
G1 X117.207 Y103.745 E0.20966
G1 X118.016 Y103.751 E0.22581
G1 X118.261 Y103.762 E0.2307
G1 X119.132 Y103.836 E0.24815
G1 X119.276 Y103.854 E0.25104
G1 X120.254 Y104.021 E0.27084
G1 X120.566 Y104.089 E0.27722
G1 X121.64 Y104.381 E0.29943
G1 X121.943 Y104.48 E0.30579
G1 X123.093 Y104.928 E0.33042
G1 X123.31 Y105.027 E0.33518
G1 X124.389 Y105.594 E0.3595
G1 X124.685 Y105.771 E0.36638
G1 X125.559 Y106.352 E0.38733
G1 X125.771 Y106.508 E0.39258
G1 X126.489 Y107.084 E0.41095
G1 X126.671 Y107.243 E0.41577
G1 X127.482 Y108.029 E0.43831
G1 X127.632 Y108.19 E0.4427
G1 X128.455 Y109.184 E0.46846
G1 X128.727 Y109.555 E0.47764
G1 X129.249 Y110.334 E0.49635
G1 X129.521 Y110.806 E0.50722
G1 X129.646 Y111.036 E0.51244
G1 X130.166 Y112.133 E0.53667
G1 X130.288 Y112.432 E0.54312
G1 X130.616 Y113.35 E0.56257
G1 X130.693 Y113.6 E0.56779
G1 X130.963 Y114.663 E0.58968
G1 X131.01 Y114.896 E0.59442
G1 X131.138 Y115.677 E0.61021
G1 X131.167 Y115.904 E0.61478
G1 X131.252 Y117.011 E0.63694
G1 X131.258 Y117.241 E0.64153
G1 X131.254 Y117.943 E0.65554
G1 X131.248 Y118.102 E0.65871
G1 X131.13 Y119.347 E0.68367
G1 X131.059 Y119.812 E0.69306
G1 X130.878 Y120.733 E0.71179
G1 X130.73 Y121.283 E0.72315
G1 X130.711 Y121.347 E0.72449
G1 X130.506 Y121.969 E0.73756
G1 X130.363 Y122.363 E0.74592
G1 X129.868 Y123.518 E0.771
G1 X129.701 Y123.853 E0.77847
G1 X129.056 Y124.975 E0.80429
G1 X128.978 Y125.094 E0.80713
G1 X128.199 Y126.141 E0.83318
G1 X127.878 Y126.523 E0.84313
G1 X126.921 Y127.526 E0.8708
G1 X126.711 Y127.72 E0.8765
G1 X125.623 Y128.604 E0.90448
G1 X125.332 Y128.811 E0.91161
G1 X124.473 Y129.364 E0.93199
G1 X124.058 Y129.596 E0.94148
G1 X123.859 Y129.702 E0.94598
G1 X123.207 Y130.022 E0.96048
G1 X123.116 Y130.063 E0.96247
G1 X122.06 Y130.475 E0.98509
G1 X121.65 Y130.611 E0.99371
G1 X120.393 Y130.947 E1.01967
G1 X120.051 Y131.017 E1.02664
G1 X118.907 Y131.189 E1.04973
G1 X118.773 Y131.202 E1.05241
G1 X117.711 Y131.253 E1.07363
G1 X117.365 Y131.253 E1.08054
G1 X116.031 Y131.172 E1.10721
G1 X115.638 Y131.124 E1.11511
G1 X114.289 Y130.873 E1.14249
G1 X113.967 Y130.792 E1.14912
G1 X112.936 Y130.478 E1.17062
G1 X112.699 Y130.393 E1.17565
G1 X111.765 Y130.009 E1.1958
G1 X111.632 Y129.947 E1.19873
G1 X110.547 Y129.365 E1.2233
G1 X110.136 Y129.114 E1.23291
G1 X109.357 Y128.591 E1.25164
G1 X108.624 Y128.003 E1.27039
G1 X108.263 Y127.687 E1.27996
G1 X107.408 Y126.853 E1.3038
G1 X107.306 Y126.742 E1.30681
G1 X106.713 Y126.04 E1.32514
G1 X106.53 Y125.804 E1.3311
G1 X105.791 Y124.722 E1.35725
G1 X105.65 Y124.487 E1.36272
G1 X105.293 Y123.845 E1.37738
G1 X105.252 Y123.765 E1.37917
G1 X104.96 Y123.148 E1.3928
G1 X104.826 Y122.841 E1.39948
G1 X104.367 Y121.588 E1.42611
G1 X104.281 Y121.3 E1.43211
G1 X104.057 Y120.421 E1.45021
G1 X104.006 Y120.179 E1.45515
G1 X103.87 Y119.393 E1.47107
G1 X103.856 Y119.29 E1.47314
G1 X103.77 Y118.363 E1.49172
G1 X103.756 Y118.086 E1.49725
G1 X103.744 Y117.338 E1.51218
G1 X103.746 Y117.224 E1.51446
G1 X103.778 Y116.557 E1.52778
G1 X103.802 Y116.251 E1.53391
G1 X103.983 Y114.948 E1.56016
G1 X104.05 Y114.614 E1.56696
G1 X104.291 Y113.642 E1.58694
G1 X104.302 Y113.605 E1.58771
G1 X104.597 Y112.745 E1.60586
G1 X104.742 Y112.373 E1.61383
G1 X104.963 Y111.848 E1.62519
G1 X104.995 Y111.777 E1.62675
G1 X105.429 Y110.915 E1.64601
G1 X105.636 Y110.546 E1.65445
G1 X106.13 Y109.749 E1.67316
G1 X106.59 Y109.12 E1.68871
G1 X106.813 Y108.837 E1.6959
G1 X107.424 Y108.126 E1.71461
G1 X107.774 Y107.769 E1.72459
G0 F6000 X108.053 Y108.055
G1 F1200 X108.253 Y107.86 E1.73016
G1 X108.78 Y107.38 E1.74439
G1 X108.935 Y107.248 E1.74845
G1 X109.704 Y106.652 E1.76787
G1 X109.89 Y106.521 E1.77241
G1 X110.4 Y106.184 E1.78461
G1 X110.503 Y106.12 E1.78703
G1 X111.402 Y105.62 E1.80756
G1 X111.655 Y105.495 E1.81319
G1 X112.169 Y105.258 E1.82448
G1 X112.367 Y105.173 E1.82878
G1 X113.155 Y104.871 E1.84562
G1 X113.303 Y104.821 E1.84874
G1 X114.417 Y104.511 E1.87182
G1 X114.894 Y104.406 E1.88156
G1 X115.801 Y104.247 E1.89994
G1 X116.274 Y104.196 E1.90943
G1 X116.415 Y104.184 E1.91226
G1 X117.01 Y104.15 E1.92415
G1 X117.219 Y104.144 E1.92832
G1 X117.998 Y104.151 E1.94387
G1 X118.243 Y104.162 E1.94876
G1 X119.083 Y104.233 E1.96559
G1 X119.227 Y104.251 E1.96848
G1 X120.169 Y104.412 E1.98755
G1 X120.481 Y104.48 E1.99393
G1 X121.516 Y104.761 E2.01533
G1 X121.819 Y104.86 E2.02169
G1 X122.927 Y105.292 E2.04542
G1 X123.144 Y105.391 E2.05018
G1 X124.184 Y105.937 E2.07362
G1 X124.48 Y106.114 E2.08051
G1 X125.322 Y106.674 E2.10068
G1 X125.534 Y106.83 E2.10594
G1 X126.226 Y107.385 E2.12364
G1 X126.408 Y107.544 E2.12846
G1 X127.19 Y108.301 E2.15018
G1 X127.34 Y108.462 E2.15457
G1 X128.133 Y109.421 E2.17941
G1 X128.405 Y109.792 E2.18859
G1 X128.916 Y110.557 E2.20695
G1 X129.169 Y110.997 E2.21708
G1 X129.294 Y111.227 E2.2223
G1 X129.795 Y112.284 E2.24564
G1 X129.917 Y112.583 E2.25209
G1 X130.233 Y113.468 E2.27084
G1 X130.31 Y113.718 E2.27606
G1 X130.571 Y114.742 E2.29715
G1 X130.618 Y114.975 E2.30189
G1 X130.742 Y115.728 E2.31712
G1 X130.771 Y115.955 E2.32169
G1 X130.852 Y117.022 E2.34304
G1 X130.858 Y117.252 E2.34763
G1 X130.854 Y117.928 E2.36112
G1 X130.848 Y118.087 E2.3643
G1 X130.735 Y119.287 E2.38835
G1 X130.664 Y119.752 E2.39774
G1 X130.485 Y120.655 E2.41611
G1 X130.347 Y121.169 E2.42673
G1 X130.328 Y121.233 E2.42806
G1 X130.13 Y121.832 E2.44065
G1 X129.987 Y122.226 E2.44902
G1 X129.51 Y123.339 E2.47318
G1 X129.343 Y123.674 E2.48065
G1 X128.721 Y124.756 E2.50556
G1 X128.643 Y124.875 E2.5084
G1 X127.893 Y125.883 E2.53347
G1 X127.572 Y126.265 E2.54343
G1 X126.65 Y127.232 E2.57009
G1 X126.44 Y127.426 E2.5758
G1 X125.391 Y128.278 E2.60277
G1 X125.1 Y128.485 E2.60989
G1 X124.272 Y129.017 E2.62953
G1 X123.87 Y129.243 E2.63874
G1 X123.671 Y129.349 E2.64324
G1 X123.042 Y129.657 E2.65721
G1 X122.951 Y129.698 E2.6592
G1 X121.934 Y130.095 E2.68099
G1 X121.524 Y130.231 E2.68961
G1 X120.313 Y130.555 E2.71463
G1 X119.971 Y130.625 E2.7216
G1 X118.869 Y130.79 E2.74383
G1 X118.735 Y130.803 E2.74652
G1 X117.711 Y130.853 E2.76698
G1 X117.365 Y130.853 E2.77388
G1 X116.08 Y130.775 E2.79957
G1 X115.687 Y130.727 E2.80747
G1 X114.386 Y130.485 E2.83388
G1 X114.064 Y130.404 E2.84051
G1 X113.072 Y130.102 E2.8612
G1 X112.835 Y130.017 E2.86623
G1 X111.934 Y129.646 E2.88567
G1 X111.801 Y129.584 E2.8886
G1 X110.755 Y129.023 E2.91229
G1 X110.344 Y128.772 E2.9219
G1 X109.58 Y128.259 E2.94026
G1 X108.887 Y127.702 E2.95801
G1 X108.526 Y127.386 E2.96758
G1 X107.703 Y126.582 E2.99054
G1 X107.601 Y126.471 E2.99355
G1 X107.029 Y125.794 E3.01124
G1 X106.846 Y125.558 E3.01719
G1 X106.134 Y124.517 E3.04236
G1 X105.993 Y124.282 E3.04783
G1 X105.649 Y123.663 E3.06196
G1 X105.608 Y123.583 E3.06376
G1 X105.326 Y122.988 E3.0769
G1 X105.192 Y122.681 E3.08358
G1 X104.75 Y121.474 E3.10923
G1 X104.664 Y121.186 E3.11523
G1 X104.449 Y120.339 E3.13267
G1 X104.398 Y120.097 E3.13761
G1 X104.267 Y119.339 E3.15296
G1 X104.253 Y119.236 E3.15503
G1 X104.17 Y118.343 E3.17293
G1 X104.156 Y118.066 E3.17846
G1 X104.144 Y117.345 E3.19286
G1 X104.146 Y117.231 E3.19513
G1 X104.176 Y116.588 E3.20798
G1 X104.2 Y116.282 E3.2141
G1 X104.375 Y115.026 E3.23941
G1 X104.442 Y114.692 E3.24621
G1 X104.675 Y113.756 E3.26546
G1 X104.686 Y113.719 E3.26623
G1 X104.97 Y112.89 E3.28371
G1 X105.115 Y112.518 E3.29168
G1 X105.327 Y112.012 E3.30263
G1 X105.359 Y111.941 E3.30418
G1 X105.778 Y111.111 E3.32274
G1 X105.985 Y110.742 E3.33118
G1 X106.47 Y109.959 E3.34956
G1 X106.904 Y109.367 E3.36421
G1 X107.127 Y109.084 E3.3714
G1 X107.728 Y108.387 E3.38977
G1 X108.053 Y108.055 E3.39904
G0 F6000 X108.332 Y108.342
G1 F1200 X108.532 Y108.147 E3.40461
G1 X109.04 Y107.684 E3.41833
G1 X109.195 Y107.552 E3.42239
G1 X109.935 Y106.979 E3.44107
G1 X110.121 Y106.848 E3.44561
G1 X110.611 Y106.523 E3.45734
G1 X110.714 Y106.459 E3.45976
G1 X111.579 Y105.978 E3.47951
G1 X111.832 Y105.853 E3.48515
G1 X112.326 Y105.625 E3.496
G1 X112.524 Y105.54 E3.5003
G1 X113.283 Y105.25 E3.51652
G1 X113.431 Y105.2 E3.51964
G1 X114.503 Y104.901 E3.54184
G1 X114.98 Y104.796 E3.55159
G1 X116.308 Y104.595 E3.5784
G1 X116.449 Y104.583 E3.58122
G1 X117.021 Y104.55 E3.59265
G1 X117.23 Y104.544 E3.59683
G1 X117.98 Y104.55 E3.61179
G1 X118.225 Y104.561 E3.61669
G1 X119.033 Y104.63 E3.63287
G1 X119.177 Y104.648 E3.63577
G1 X120.084 Y104.803 E3.65413
G1 X120.396 Y104.871 E3.6605
G1 X121.392 Y105.141 E3.6811
G1 X121.695 Y105.24 E3.68746
G1 X122.761 Y105.656 E3.71029
G1 X122.978 Y105.755 E3.71505
G1 X123.979 Y106.281 E3.73762
G1 X124.275 Y106.458 E3.7445
G1 X125.085 Y106.997 E3.76392
G1 X125.297 Y107.153 E3.76917
G1 X125.963 Y107.686 E3.78619
G1 X126.145 Y107.845 E3.79102
G1 X126.897 Y108.574 E3.81192
G1 X127.047 Y108.735 E3.81631
G1 X127.81 Y109.657 E3.84019
G1 X128.082 Y110.028 E3.84937
G1 X128.583 Y110.779 E3.86739
G1 X128.818 Y111.188 E3.8768
G1 X128.943 Y111.418 E3.88202
G1 X129.425 Y112.436 E3.9045
G1 X129.547 Y112.735 E3.91095
G1 X129.851 Y113.586 E3.92898
G1 X129.928 Y113.836 E3.9342
G1 X130.179 Y114.821 E3.95448
G1 X130.226 Y115.054 E3.95923
G1 X130.345 Y115.778 E3.97387
G1 X130.374 Y116.005 E3.97844
G1 X130.453 Y117.032 E3.99899
G1 X130.459 Y117.262 E4.00358
G1 X130.455 Y117.913 E4.01658
G1 X130.449 Y118.072 E4.01975
G1 X130.339 Y119.227 E4.0429
G1 X130.268 Y119.692 E4.05229
G1 X130.092 Y120.577 E4.0703
G1 X129.963 Y121.055 E4.08018
G1 X129.944 Y121.119 E4.08151
G1 X129.754 Y121.696 E4.09363
G1 X129.611 Y122.09 E4.102
G1 X129.152 Y123.161 E4.12525
G1 X128.985 Y123.496 E4.13272
G1 X128.387 Y124.537 E4.15668
G1 X128.309 Y124.656 E4.15952
G1 X127.587 Y125.626 E4.18365
G1 X127.266 Y126.008 E4.19361
G1 X126.378 Y126.938 E4.21927
G1 X126.168 Y127.132 E4.22497
G1 X125.159 Y127.952 E4.25092
G1 X124.868 Y128.159 E4.25805
G1 X124.072 Y128.671 E4.27693
G1 X123.682 Y128.89 E4.28586
G1 X123.483 Y128.996 E4.29036
G1 X122.878 Y129.293 E4.30381
G1 X122.787 Y129.334 E4.3058
G1 X121.808 Y129.715 E4.32677
G1 X121.398 Y129.851 E4.33539
G1 X120.232 Y130.163 E4.35947
G1 X119.89 Y130.233 E4.36644
G1 X118.83 Y130.392 E4.38783
G1 X118.696 Y130.405 E4.39052
G1 X117.711 Y130.453 E4.4102
G1 X117.365 Y130.453 E4.4171
G1 X116.128 Y130.378 E4.44183
G1 X115.735 Y130.33 E4.44973
G1 X114.484 Y130.097 E4.47513
G1 X114.162 Y130.016 E4.48175
G1 X113.207 Y129.725 E4.50168
G1 X112.97 Y129.64 E4.5067
G1 X112.103 Y129.284 E4.52541
G1 X111.97 Y129.222 E4.52833
G1 X110.964 Y128.682 E4.55112
G1 X110.553 Y128.431 E4.56073
G1 X109.804 Y127.927 E4.57875
G1 X109.151 Y127.401 E4.59548
G1 X108.79 Y127.085 E4.60505
G1 X107.997 Y126.312 E4.62715
G1 X107.895 Y126.201 E4.63016
G1 X107.345 Y125.549 E4.64718
G1 X107.162 Y125.313 E4.65314
G1 X106.477 Y124.311 E4.67737
G1 X106.336 Y124.076 E4.68283
G1 X106.005 Y123.48 E4.69644
G1 X105.964 Y123.4 E4.69823
G1 X105.693 Y122.828 E4.71086
G1 X105.559 Y122.521 E4.71755
G1 X105.133 Y121.359 E4.74225
G1 X105.047 Y121.071 E4.74825
G1 X104.84 Y120.256 E4.76503
G1 X104.789 Y120.014 E4.76996
G1 X104.663 Y119.285 E4.78473
G1 X104.649 Y119.182 E4.7868
G1 X104.569 Y118.323 E4.80402
G1 X104.555 Y118.046 E4.80955
G1 X104.544 Y117.352 E4.8234
G1 X104.546 Y117.238 E4.82568
G1 X104.575 Y116.619 E4.83804
G1 X104.599 Y116.313 E4.84417
G1 X104.767 Y115.105 E4.86851
G1 X104.834 Y114.771 E4.87531
G1 X105.058 Y113.87 E4.89383
G1 X105.069 Y113.833 E4.8946
G1 X105.342 Y113.036 E4.91142
G1 X105.487 Y112.664 E4.91938
G1 X105.692 Y112.177 E4.92993
G1 X105.724 Y112.106 E4.93148
G1 X106.127 Y111.307 E4.94934
G1 X106.334 Y110.938 E4.95778
G1 X106.81 Y110.17 E4.97582
G1 X107.218 Y109.615 E4.98956
G1 X107.441 Y109.332 E4.99675
G1 X108.332 Y108.342 E5.02333
G1 F2700 E0.02333
;MESH:Body1.stl
G0 F6000 X114.972 Y115.175
G0 X115.753 Y115.924
G0 X115.948 Y117.87
G0 X116.089 Y118.246
G0 X116.307 Y118.562
G0 X116.606 Y118.823
G0 X117.749 Y119.254
;TYPE:WALL-INNER
G1 F2700 E5.02333
G1 F1200 X117.306 Y119.259 E5.03217
G1 X116.895 Y119.162 E5.0406
G1 X116.509 Y118.965 E5.04925
G1 X116.178 Y118.676 E5.05802
G1 X115.935 Y118.324 E5.06655
G1 X115.78 Y117.911 E5.07536
G1 X115.732 Y117.497 E5.08367
G1 X115.785 Y117.071 E5.09224
G1 X115.938 Y116.671 E5.10079
G1 X116.183 Y116.318 E5.10936
G1 X116.527 Y116.023 E5.11841
G1 X116.896 Y115.835 E5.12667
G1 X117.303 Y115.741 E5.13501
G1 X117.531 Y115.732 E5.13956
G1 X117.966 Y115.793 E5.14833
G1 X118.354 Y115.951 E5.15669
G1 X118.684 Y116.184 E5.16475
G1 X118.862 Y116.369 E5.16987
G1 X119.09 Y116.722 E5.17826
G1 X119.228 Y117.117 E5.18661
G1 X119.269 Y117.559 E5.19546
G1 X119.205 Y117.974 E5.20384
G1 X119.046 Y118.366 E5.21229
G1 X118.788 Y118.716 E5.22096
G1 X118.439 Y119 E5.22994
G1 X118.045 Y119.185 E5.23863
G1 X117.749 Y119.254 E5.24469
G0 F6000 X117.535 Y119.67
G1 F1200 X117.267 Y119.658 E5.25005
G1 X117.006 Y119.613 E5.25533
G1 X116.76 Y119.539 E5.26046
G1 X116.513 Y119.431 E5.26584
G1 X116.284 Y119.297 E5.27113
G1 X116.072 Y119.133 E5.27648
G1 X115.883 Y118.947 E5.28178
G1 X115.733 Y118.76 E5.28656
G1 X115.581 Y118.512 E5.29236
G1 X115.475 Y118.275 E5.29754
G1 X115.392 Y118.011 E5.30307
G1 X115.35 Y117.79 E5.30756
G1 X115.331 Y117.499 E5.31338
G1 X115.346 Y117.245 E5.31845
G1 X115.396 Y116.974 E5.32395
G1 X115.475 Y116.724 E5.32919
G1 X115.586 Y116.479 E5.33455
G1 X115.72 Y116.259 E5.33969
G1 X115.884 Y116.05 E5.345
G1 X116.072 Y115.867 E5.35023
G1 X116.298 Y115.694 E5.35591
G1 X116.504 Y115.571 E5.3607
G1 X116.76 Y115.459 E5.36628
G1 X117.002 Y115.387 E5.37131
G1 X117.266 Y115.342 E5.37666
G1 X117.537 Y115.331 E5.38207
G1 X117.806 Y115.352 E5.38746
G1 X118.065 Y115.405 E5.39273
G1 X118.289 Y115.478 E5.39743
G1 X118.548 Y115.6 E5.40315
G1 X118.783 Y115.749 E5.4087
G1 X118.956 Y115.889 E5.41314
G1 X119.164 Y116.106 E5.41914
G1 X119.298 Y116.283 E5.42357
G1 X119.45 Y116.546 E5.42963
G1 X119.552 Y116.791 E5.43493
G1 X119.62 Y117.033 E5.43994
G1 X119.662 Y117.291 E5.44516
G1 X119.67 Y117.567 E5.45067
G1 X119.646 Y117.829 E5.45592
G1 X119.59 Y118.085 E5.46115
G1 X119.497 Y118.351 E5.46677
G1 X119.395 Y118.562 E5.47145
G1 X119.247 Y118.789 E5.47686
G1 X119.076 Y118.995 E5.4822
G1 X118.888 Y119.17 E5.48733
G1 X118.654 Y119.338 E5.49307
G1 X118.433 Y119.46 E5.49811
G1 X118.182 Y119.561 E5.50351
G1 X118.055 Y119.6 E5.50616
G1 X117.802 Y119.651 E5.51131
G1 X117.535 Y119.67 E5.51666
G0 F6000 X117.538 Y120.071
;TYPE:WALL-OUTER
G1 F1200 X117.229 Y120.057 E5.52283
G1 X116.914 Y120.003 E5.52921
G1 X116.618 Y119.914 E5.53537
G1 X116.331 Y119.789 E5.54162
G1 X116.061 Y119.63 E5.54787
G1 X115.807 Y119.434 E5.55428
G1 X115.588 Y119.218 E5.56042
G1 X115.405 Y118.99 E5.56625
G1 X115.226 Y118.698 E5.57308
G1 X115.099 Y118.415 E5.57927
G1 X115.004 Y118.112 E5.58561
G1 X114.953 Y117.841 E5.59111
G1 X114.93 Y117.502 E5.5979
G1 X114.949 Y117.19 E5.60413
